X: 1
T: The Old Time Wedding
R: reel
M: 4/4
L: 1/8
K: Bdor
A|GFDF GFDF|BcBG ~F3A|3(GGG   Bc dcBA|GABc d2 df|
gagf dfcA|BGFG B3d|edcA GEcE|D2 EG A3:|
g|ageg agea|gede g3b|agea gbed|cAcd e2 eg|
abag egdB|cAGA c3d|edcA GEcE|D2 EG A3:|